Numix-Light-GalliumOS/24/status/indicator-usb.svg

<?xml version="1.0" encoding="UTF-8" standalone="no"?>
<!-- Created with Inkscape (http://www.inkscape.org/) -->

<svg
   xmlns:dc="http://purl.org/dc/elements/1.1/"
   xmlns:cc="http://creativecommons.org/ns#"
   xmlns:rdf="http://www.w3.org/1999/02/22-rdf-syntax-ns#"
   xmlns:svg="http://www.w3.org/2000/svg"
   xmlns="http://www.w3.org/2000/svg"
   xmlns:sodipodi="http://sodipodi.sourceforge.net/DTD/sodipodi-0.dtd"
   xmlns:inkscape="http://www.inkscape.org/namespaces/inkscape"
   width="24"
   height="24"
   viewBox="0 0 23.999999 23.999999"
   id="svg2"
   version="1.1"
   inkscape:version="0.91 r"
   sodipodi:docname="indicator-usb.svg">
  <defs
     id="defs4">
    <clipPath
       id="clipPath-273353313">
      <g
         transform="translate(0,-1004.3622)"
         id="g17">
        <path
           style="fill:#1890d0"
           inkscape:connector-curvature="0"
           d="m -24,13 c 0,1.105 -0.672,2 -1.5,2 -0.828,0 -1.5,-0.895 -1.5,-2 0,-1.105 0.672,-2 1.5,-2 0.828,0 1.5,0.895 1.5,2 z"
           transform="matrix(15.333333,0,0,11.5,414.99999,878.8622)"
           id="path19" />
      </g>
    </clipPath>
  </defs>
  <sodipodi:namedview
     id="base"
     pagecolor="#ffffff"
     bordercolor="#666666"
     borderopacity="1.0"
     inkscape:pageopacity="0.0"
     inkscape:pageshadow="2"
     inkscape:zoom="22.627417"
     inkscape:cx="11.666806"
     inkscape:cy="12.918012"
     inkscape:document-units="px"
     inkscape:current-layer="layer1"
     showgrid="true"
     units="px"
     inkscape:window-width="1366"
     inkscape:window-height="747"
     inkscape:window-x="0"
     inkscape:window-y="21"
     inkscape:window-maximized="1">
    <inkscape:grid
       type="xygrid"
       id="grid4153" />
  </sodipodi:namedview>
  <metadata
     id="metadata7">
    <rdf:RDF>
      <cc:Work
         rdf:about="">
        <dc:format>image/svg+xml</dc:format>
        <dc:type
           rdf:resource="http://purl.org/dc/dcmitype/StillImage" />
        <dc:title />
      </cc:Work>
    </rdf:RDF>
  </metadata>
  <g
     inkscape:label="Ebene 1"
     inkscape:groupmode="layer"
     id="layer1"
     transform="translate(0,-1028.3622)">
    <g
       id="g4153"
       style="fill:#353535;fill-opacity:1"
       transform="translate(0.99999961,-0.99950043)">
      <g
         id="g4147"
         style="fill:#353535;fill-opacity:1">
        <g
           style="fill:#353535;fill-opacity:1"
           id="g49"
           clip-path="url(#clipPath-273353313)"
           transform="matrix(-0.99641748,0,0,-0.99691891,40.865315,1062.0948)">
          <!-- color: #923165 -->
          <g
             style="fill:#353535;fill-opacity:1"
             id="g51">
            <path
               style="fill:#353535;fill-opacity:1;fill-rule:nonzero;stroke:none"
               d="M 11,1.25 8,5 l 2,0 0,9.240234 -3,-2.064453 0,-0.5 C 7.7412073,11.454796 8.2494386,10.773448 8.25,10 8.25,9.0335017 7.4664983,8.25 6.5,8.25 5.5335017,8.25 4.75,9.0335017 4.75,10 4.7505614,10.773448 5.2587927,11.454796 6,11.675781 l 0,0.802735 c -0.00399,0.182921 0.059525,0.370328 0.2578125,0.486328 L 10.001953,15.54 l 0,1.014688 C 9.2721496,16.928889 8.8129691,17.679864 8.8125,18.5 8.8125199,19.708102 9.79188,20.687462 11,20.6875 12.20812,20.687462 13.18748,19.708102 13.1875,18.5 13.186676,17.680995 12.728422,16.931057 12,16.556641 L 12,13.46 15.583984,11.007812 C 15.806185,10.894788 15.998409,10.673013 16,10.501953 L 16,9 l 1,0 0,-3 -3,0 0,3 1,0 0,1.181641 -3,1.99414 L 12,5 14,5 Z"
               transform="matrix(-1.0035953,0,0,-1.0030905,41.012242,31.830673)"
               id="path53"
               inkscape:connector-curvature="0"
               sodipodi:nodetypes="cccccccscccccccccccccccccccccccc" />
          </g>
        </g>
      </g>
    </g>
  </g>
</svg>

<svg xmlns="http://www.w3.org/2000/svg" viewBox="0 0 23.999999 23.999999">
 <g transform="translate(0,-1028.3622)">
  <g transform="translate(0.99999961,-0.99950043)" style="fill:#353535;fill-opacity:1">
   <g>
    <g transform="matrix(-0.99641748,0,0,-0.99691891,40.865315,1062.0948)">
     <!-- color: #923165 -->
     <g>
      <path d="m 11 1.25 -3 3.75 l 2 0 0 9.24 -3 -2.064 0 -0.5 c 0.741 -0.221 1.249 -0.902 1.25 -1.676 0 -0.966 -0.784 -1.75 -1.75 -1.75 -0.966 0 -1.75 0.784 -1.75 1.75 0.001 0.773 0.509 1.455 1.25 1.676 l 0 0.803 c -0.004 0.183 0.06 0.37 0.258 0.486 l 3.744 2.575 l 0 1.015 c -0.73 0.374 -1.189 1.125 -1.189 1.945 0 1.208 0.979 2.187 2.188 2.188 1.208 0 2.187 -0.979 2.188 -2.188 -0.001 -0.819 -0.459 -1.569 -1.188 -1.943 l 0 -3.097 3.584 -2.452 c 0.222 -0.113 0.414 -0.335 0.416 -0.506 l 0 -1.502 l 1 0 0 -3 -3 0 0 3 1 0 0 1.182 -3 1.994 l 0 -7.176 2 0" transform="matrix(-1.0035953,0,0,-1.0030905,41.012242,31.830673)" style="stroke:none;fill-rule:nonzero"/>
     </g>
    </g>
   </g>
  </g>
 </g>
</svg>
